polaris-icons/icons/newicons/MeasurementMinor.svg

<svg width="20" height="20" viewBox="0 0 20 20" fill="none" xmlns="http://www.w3.org/2000/svg">
<path d="M5 11.75C5 12.1642 5.33578 12.5 5.75 12.5C6.16421 12.5 6.5 12.1642 6.5 11.75L6.5 4.69541L7.99549 6.05495C8.30199 6.33359 8.77632 6.311 9.05495 6.0045C9.33358 5.69801 9.311 5.22367 9.0045 4.94504L6.2545 2.44504C5.96844 2.18499 5.53156 2.18499 5.24549 2.44504L2.49549 4.94505C2.189 5.22368 2.16641 5.69801 2.44504 6.0045C2.72367 6.311 3.19801 6.33359 3.5045 6.05496L5 4.69541L5 11.75Z" fill="black"/>
<path d="M16.25 6C15.8358 6 15.5 5.66421 15.5 5.25V4.75C15.5 4.61193 15.3881 4.5 15.25 4.5H14.75C14.3358 4.5 14 4.16421 14 3.75C14 3.33579 14.3358 3 14.75 3H15.25C16.2165 3 17 3.7835 17 4.75V5.25C17 5.66421 16.6642 6 16.25 6Z" fill="black"/>
<path d="M16.25 7.5C16.6642 7.5 17 7.83579 17 8.25V9.75C17 10.1642 16.6642 10.5 16.25 10.5C15.8358 10.5 15.5 10.1642 15.5 9.75V8.25C15.5 7.83579 15.8358 7.5 16.25 7.5Z" fill="black"/>
<path d="M11.75 4.5C12.1642 4.5 12.5 4.16421 12.5 3.75C12.5 3.33579 12.1642 3 11.75 3L10.25 3C9.83579 3 9.5 3.33579 9.5 3.75C9.5 4.16421 9.83579 4.5 10.25 4.5H11.75Z" fill="black"/>
<path d="M7.5 14.25C7.5 13.8358 7.83579 13.5 8.25 13.5L15.3046 13.5L13.945 12.0045C13.6664 11.698 13.689 11.2237 13.9955 10.945C14.302 10.6664 14.7763 10.689 15.055 10.9955L17.555 13.7455C17.815 14.0316 17.815 14.4684 17.555 14.7545L15.055 17.5045C14.7763 17.811 14.302 17.8336 13.9955 17.5549C13.689 17.2763 13.6664 16.802 13.945 16.4955L15.3046 15H8.25C7.83579 15 7.5 14.6642 7.5 14.25Z" fill="black"/>
</svg>

<svg viewBox="0 0 20 20" fill="none" xmlns="http://www.w3.org/2000/svg"><path d="M5 11.75a.75.75 0 0 0 1.5 0v-7.055l1.495 1.36a.75.75 0 1 0 1.01-1.11l-2.75-2.5a.75.75 0 0 0-1.01 0l-2.75 2.5a.75.75 0 1 0 1.01 1.11l1.495-1.36v7.055Z" fill="#5C5F62"/><path d="M16.25 6a.75.75 0 0 1-.75-.75v-.5a.25.25 0 0 0-.25-.25h-.5a.75.75 0 0 1 0-1.5h.5c.966 0 1.75.784 1.75 1.75v.5a.75.75 0 0 1-.75.75Z" fill="#5C5F62"/><path d="M16.25 7.5a.75.75 0 0 1 .75.75v1.5a.75.75 0 0 1-1.5 0v-1.5a.75.75 0 0 1 .75-.75Z" fill="#5C5F62"/><path d="M11.75 4.5a.75.75 0 0 0 0-1.5h-1.5a.75.75 0 0 0 0 1.5h1.5Z" fill="#5C5F62"/><path d="M7.5 14.25a.75.75 0 0 1 .75-.75h7.055l-1.36-1.495a.75.75 0 0 1 1.11-1.01l2.5 2.75a.75.75 0 0 1 0 1.01l-2.5 2.75a.75.75 0 0 1-1.11-1.01l1.36-1.495h-7.055a.75.75 0 0 1-.75-.75Z" fill="#5C5F62"/></svg>
